src/img/icons/analytics.svg

<?xml version="1.0" encoding="UTF-8"?>
<svg width="24px" height="24px" viewBox="0 0 24 24" version="1.1" xmlns="http://www.w3.org/2000/svg" xmlns:xlink="http://www.w3.org/1999/xlink">
    <!-- Generator: Sketch 57.1 (83088) - https://sketch.com -->
    <title>icon-analytics</title>
    <desc>Created with Sketch.</desc>
    <defs>
        <path d="M13.953125,2 L10.046875,2 C9.72328125,2 9.4609375,2.31231399 9.4609375,2.69754464 L9.4609375,21.2987351 C9.4609375,21.6839658 9.72328125,21.9962798 10.046875,21.9962798 L13.953125,21.9962798 C14.2767188,21.9962798 14.5390625,21.6839658 14.5390625,21.2987351 L14.5390625,2.69754464 C14.5390625,2.31231399 14.2767188,2 13.953125,2 Z M13.3671875,20.6011905 L10.6328125,20.6011905 L10.6328125,13.625744 L13.3671875,13.625744 L13.3671875,20.6011905 Z M6.4921875,10.3705357 C6.78636364,10.3705357 7.02991994,10.6286464 7.07177169,10.9650052 L7.078125,11.0680804 L7.078125,21.2987351 C7.078125,21.6489448 6.86131198,21.9388928 6.57877066,21.9887163 L6.4921875,21.9962798 L2.5859375,21.9962798 C2.29176136,21.9962798 2.04820506,21.738169 2.00635331,21.4018103 L2,21.2987351 L2,11.0680804 C2,10.7178707 2.21681302,10.4279227 2.49935434,10.3780992 L2.5859375,10.3705357 L6.4921875,10.3705357 Z M21.4140625,10.3705357 C21.7082386,10.3705357 21.9517949,10.6286464 21.9936467,10.9650052 L22,11.0680804 L22,21.2987351 C22,21.6489448 21.783187,21.9388928 21.5006457,21.9887163 L21.4140625,21.9962798 L17.5078125,21.9962798 C17.2136364,21.9962798 16.9700801,21.738169 16.9282283,21.4018103 L16.921875,21.2987351 L16.921875,11.0680804 C16.921875,10.7178707 17.138688,10.4279227 17.4212293,10.3780992 L17.5078125,10.3705357 L21.4140625,10.3705357 Z M5.90625,18.2760417 L3.171875,18.2760417 L3.171875,20.6011905 L5.90625,20.6011905 L5.90625,18.2760417 Z M20.828125,18.2760417 L18.09375,18.2760417 L18.09375,20.6011905 L20.828125,20.6011905 L20.828125,18.2760417 Z M5.90625,11.765625 L3.171875,11.765625 L3.171875,16.8809524 L5.90625,16.8809524 L5.90625,11.765625 Z M20.828125,11.765625 L18.09375,11.765625 L18.09375,16.8809524 L20.828125,16.8809524 L20.828125,11.765625 Z M13.3671875,3.39508929 L13.3671875,12.2306548 L10.6328125,12.2306548 L10.6328125,3.39508929 L13.3671875,3.39508929 Z" id="path-1"></path>
    </defs>
    <g id="icon-analytics" stroke="none" stroke-width="1" fill="none" fill-rule="evenodd">
        <mask id="mask-2" fill="white">
            <use xlink:href="#path-1"></use>
        </mask>
        <use id="Combined-Shape" fill="#BFC5D2" xlink:href="#path-1"></use>
    </g>
</svg>

<svg id="Layer_1" data-name="Layer 1" xmlns="http://www.w3.org/2000/svg" viewBox="0 0 20 20"><title>analytics</title><g id="Combined-Shape"><path id="path-1" d="M14,2h-3.9a.65.65,0,0,0-.59.7V21.3a.65.65,0,0,0,.59.7H14a.65.65,0,0,0,.59-.7V2.7A.65.65,0,0,0,14,2Zm-.58,18.6H10.63v-7h2.74ZM6.49,10.37a.63.63,0,0,1,.58.6V21.3a.67.67,0,0,1-.5.69h-4A.63.63,0,0,1,2,21.4V11.07a.67.67,0,0,1,.5-.69h4Zm14.92,0A.63.63,0,0,1,22,11V21.3a.67.67,0,0,1-.5.69h-4a.63.63,0,0,1-.58-.6V11.07a.67.67,0,0,1,.5-.69h4ZM5.91,18.28H3.17V20.6H5.91Zm14.92,0H18.09V20.6h2.74ZM5.91,11.77H3.17v5.11H5.91Zm14.92,0H18.09v5.11h2.74ZM13.37,3.4v8.83H10.63V3.4Z" transform="translate(-2 -2)" fill="#bfc5d2"/></g></svg>
